X:1
T:Humble Praises, SM
T:Humble Praises, SM
T:Francis Linley (1771-1800)
T:Public Domain Courtesy of the Cyber Hymnal™
C:Francis Linley (1771-1800)
Z:Public Domain
Z:Courtesy of the Cyber Hymnal™
%%score ( 1 2 ) ( 3 4 )
L:1/8
Q:1/4=98
M:3/4
K:A
V:1 treble 
V:2 treble 
V:3 bass 
V:4 bass 
V:1
 [Ee]2 | [Ec][EA] [EB]2 [EG]2 | [EA]4 [Ec]2 | [EB][FA] [EG]2 [^DF]2 | E4 [GB]2 | GE [EA]2 [Ec]2 | %6
 [Gd][Ae] !fermata![Bf]2 [GB]2 | [Ac][Fd] [Ec]2 [EB]2 | [EA]4 |] %9
V:2
 x2 | x6 | x6 | x6 | E4 x2 | GE x4 | x6 | x6 | x4 |] %9
V:3
 [A,C]2 | A,[F,C] [D,D]2 [E,B,]2 | [A,,C]4 A,2 | [G,B,][A,C] B,2 [B,,B,]2 | [E,B,]4 [E,B,]2 | %5
 [E,B,][E,B,] [C,C]2 A,2 | [F,B,][A,C] !fermata![D,D]2 [E,E]2 | [A,E][D,A,] [E,E]2 [E,E]2 | %8
 [A,,C]4 |] %9
V:4
 x2 | A, x5 | x4 A,2 | x2 B,2 x2 | x6 | x4 A,2 | x6 | x6 | x4 |] %9

